img/icons/info.svg

<svg width="21" height="21" viewBox="0 0 21 21" fill="none" xmlns="http://www.w3.org/2000/svg">
<path d="M9.83125 15.8616H11.844V9.82343H9.83125V15.8616ZM10.8376 7.8107C11.1228 7.8107 11.3619 7.71408 11.5552 7.52086C11.7484 7.32764 11.8447 7.08879 11.844 6.80433C11.8433 6.51986 11.7467 6.28101 11.5541 6.08779C11.3616 5.89457 11.1228 5.79796 10.8376 5.79796C10.5525 5.79796 10.3136 5.89457 10.1211 6.08779C9.92853 6.28101 9.83192 6.51986 9.83125 6.80433C9.83057 7.08879 9.92719 7.32797 10.1211 7.52187C10.315 7.71576 10.5538 7.81204 10.8376 7.8107ZM10.8376 20.8935C9.44547 20.8935 8.13719 20.6292 6.91278 20.1005C5.68836 19.5718 4.62329 18.8549 3.71756 17.9499C2.81182 17.0448 2.09495 15.9797 1.56695 14.7546C1.03894 13.5296 0.774598 12.2213 0.773927 10.8298C0.773256 9.43833 1.0376 8.13005 1.56695 6.90496C2.0963 5.67988 2.81317 4.6148 3.71756 3.70974C4.62195 2.80468 5.68702 2.08781 6.91278 1.55913C8.13853 1.03045 9.44681 0.766113 10.8376 0.766113C12.2284 0.766113 13.5367 1.03045 14.7625 1.55913C15.9882 2.08781 17.0533 2.80468 17.9577 3.70974C18.8621 4.6148 19.5793 5.67988 20.1093 6.90496C20.6393 8.13005 20.9033 9.43833 20.9013 10.8298C20.8993 12.2213 20.635 13.5296 20.1083 14.7546C19.5816 15.9797 18.8647 17.0448 17.9577 17.9499C17.0506 18.8549 15.9855 19.5721 14.7625 20.1015C13.5394 20.6308 12.2311 20.8948 10.8376 20.8935Z" fill="white"/>
</svg>

<svg width="21" height="21" fill="none" xmlns="http://www.w3.org/2000/svg"><path d="M9.831 15.862h2.013V9.823H9.831v6.039zm1.007-8.051a.975.975 0 00.717-.29.97.97 0 00.289-.717.979.979 0 00-.29-.716.971.971 0 00-.716-.29.971.971 0 00-.717.29.979.979 0 00-.29.716c0 .285.096.524.29.718.194.194.433.29.717.289zm0 13.082c-1.393 0-2.7-.264-3.925-.793a10.18 10.18 0 01-3.195-2.15 10.141 10.141 0 01-2.151-3.195 9.821 9.821 0 01-.793-3.925c0-1.392.264-2.7.793-3.925a10.186 10.186 0 012.15-3.195 10.148 10.148 0 013.196-2.15 9.803 9.803 0 013.925-.794c1.39 0 2.699.264 3.925.793a10.149 10.149 0 013.195 2.15 10.2 10.2 0 012.151 3.196 9.742 9.742 0 01.792 3.925 9.867 9.867 0 01-.793 3.925 10.098 10.098 0 01-2.15 3.195 10.226 10.226 0 01-3.195 2.152 9.752 9.752 0 01-3.925.791z" fill="#fff"/></svg>
